X: 384
T: Mrs Gardner of troops Reel
%R: reel
Z: 2014 John Chambers <jc:trillian.mit.edu>
B: Preston "Twenty four Country Dances for the Year 1800" p.172 #2
F: http://www.vwml.org/browse/browse-collections-dance-tune-books/browse-prestons1800# 2014-8-10
M: C|
L: 1/8
K: F
C |\
F>GFd cFdF | ECCF E/F/G/E/ CG |\
F>GFd cFdF | cf e/f/g/e/ f3 :|
|: c |\
fcac bcac | dg b/a/g/f/ egga |\
fcac bcac | cf e/f/g/e/ f3c |
fcac bcac | df b/a/g/f/ egga |\
dBdf cAcf | cf e/f/g/e/ f3 |]
% - - - - - - - - - - - - - - - - - - - - - - - - -
%%begintext align
%% Turn your Part.r with right hand half round .|
%% 1st Lady turn 2d Gent: at the same time 1st Gent:
%% turn 2d Lady with Left hand :| turn each back
%% again with right hand turn Part.r with left :|.
%% lead down the middle :|: Allemande |
%%endtext
% - - - - - - - - - - - - - - - - - - - - - - - - -

%%sep 1 1 500
%%sep 1 1 500
